src/assets/outline/Vuesax.svg

<?xml version="1.0" encoding="UTF-8"?>
<svg width="24" height="24" viewBox="0 0 24 24" xmlns="http://www.w3.org/2000/svg">
 <path d="m12 22.751c-0.25 0-0.49-0.13-0.63-0.34l-9.04-14c-0.22-0.35-0.12-0.81001 0.22-1.04 0.35-0.22 0.81001-0.13 1.04 0.22l8.4 13.02 8.37-13.02c0.22-0.35 0.69-0.45001 1.04-0.23001s0.45 0.69001 0.23 1.04l-9 14c-0.14 0.22-0.37 0.35-0.63 0.35z"/>
 <path d="m12 18.75c-0.26 0-0.4901-0.13-0.6301-0.34l-9-14c-0.15-0.23-0.16-0.52001-0.03-0.76001s0.38-0.38998 0.66-0.38998h3c0.25 0 0.48 0.11998 0.62 0.32998l5.38 8.06 5.38-8.06c0.14-0.21 0.37-0.32998 0.62-0.32998h3c0.27 0 0.53 0.14998 0.66 0.38998s0.12 0.53001-0.03 0.76001l-9 14c-0.14 0.21-0.37 0.34-0.63 0.34zm-7.63-14 7.63 11.86 7.63-11.86h-1.2301l-5.78 8.67c-0.28 0.42-0.97 0.42-1.25 0l-5.78-8.67h-1.22z"/>
 <path d="m12 9.75c-0.25 0-0.48-0.11999-0.62-0.32999l-4-6c-0.18-0.27-0.17-0.62 0.03-0.88 0.2-0.25 0.53999-0.35002 0.83999-0.24002l1.8 0.64001v-0.94c0-0.41 0.34-0.75 0.75-0.75h2.4001c0.41 0 0.75 0.34 0.75 0.75v0.94l1.7999-0.64001c0.3-0.11 0.64-0.00998 0.84 0.24002s0.21 0.61 0.03 0.88l-4 6c-0.14 0.2-0.37 0.32999-0.62 0.32999zm-2.12-5.28 2.12 3.18 2.12-3.18-0.6699 0.23999c-0.23 0.08-0.4801 0.05001-0.6801-0.08999s-0.3199-0.36999-0.3199-0.60999v-1.25h-0.9001v1.24c0 0.24-0.1199 0.46999-0.3199 0.60999s-0.4601 0.17002-0.6801 0.09002l-0.66995-0.23001z"/>
</svg>

<svg width="24" height="24" viewBox="0 0 24 24"  xmlns="http://www.w3.org/2000/svg">
<path d="M11.9998 22.7506C11.7498 22.7506 11.5098 22.6206 11.3698 22.4106L2.32981 8.41061C2.10981 8.06061 2.20981 7.6006 2.54981 7.3706C2.89981 7.1506 3.35982 7.2406 3.58982 7.5906L11.9898 20.6106L20.3598 7.5906C20.5798 7.2406 21.0498 7.14059 21.3998 7.36059C21.7498 7.58059 21.8498 8.0506 21.6298 8.4006L12.6298 22.4006C12.4898 22.6206 12.2598 22.7506 11.9998 22.7506Z" />
<path d="M12.0001 18.7498C11.7401 18.7498 11.51 18.6198 11.37 18.4098L2.37005 4.40976C2.22005 4.17976 2.21005 3.88975 2.34005 3.64975C2.47005 3.40975 2.72005 3.25977 3.00005 3.25977H6.00005C6.25005 3.25977 6.48005 3.37975 6.62005 3.58975L12.0001 11.6497L17.3801 3.58975C17.5201 3.37975 17.7501 3.25977 18.0001 3.25977H21.0001C21.2701 3.25977 21.5301 3.40975 21.6601 3.64975C21.7901 3.88975 21.7801 4.17976 21.6301 4.40976L12.6301 18.4098C12.4901 18.6198 12.2601 18.7498 12.0001 18.7498ZM4.37005 4.74976L12.0001 16.6097L19.6301 4.74976H18.4L12.62 13.4198C12.34 13.8398 11.65 13.8398 11.37 13.4198L5.59005 4.74976H4.37005Z" />
<path d="M11.9998 9.75C11.7498 9.75 11.5198 9.63001 11.3798 9.42001L7.37985 3.42001C7.19985 3.15001 7.20985 2.80001 7.40985 2.54001C7.60985 2.29001 7.94984 2.18999 8.24984 2.29999L10.0498 2.94V2C10.0498 1.59 10.3898 1.25 10.7998 1.25H13.1999C13.6099 1.25 13.9499 1.59 13.9499 2V2.94L15.7498 2.29999C16.0498 2.18999 16.3898 2.29001 16.5898 2.54001C16.7898 2.79001 16.7998 3.15001 16.6198 3.42001L12.6198 9.42001C12.4798 9.62001 12.2498 9.75 11.9998 9.75ZM9.87985 4.47L11.9998 7.64999L14.1198 4.47L13.4499 4.70999C13.2199 4.78999 12.9698 4.76 12.7698 4.62C12.5698 4.48 12.4499 4.25001 12.4499 4.01001V2.76001H11.5498V4C11.5498 4.24 11.4299 4.46999 11.2299 4.60999C11.0299 4.74999 10.7698 4.78001 10.5498 4.70001L9.87985 4.47Z" />
</svg>
